X:1
T:Only a Song
T:Only a Song
T:Charles Clinton Case
T:Robert H. Walton, 1896
T:Public Domain Courtesy of the Cyber Hymnal™
T:Public Domain Courtesy of the Cyber Hymnal™
C:Charles Clinton Case
Z:Public Domain
Z:Courtesy of the Cyber Hymnal™
%%score ( 1 2 ) 3
L:1/8
Q:1/4=100
M:6/8
K:G
V:1 treble 
V:2 treble 
V:3 bass 
V:1
 [Bd][Ac][GB] [GB][FA][GB] | [Ac] [CE]2- [CE]3 | [B,D][CE][B,D] [B,D][Bd][Ac] | [GB]6 | %4
w: 1.~On- ly a song for the|Mas- ter, *|Sung in the spir- it of|prayer;|
w: 2.~On- ly a song for the|Mas- ter, *|Bring- ing a mes- sage to|you;|
w: 3.~On- ly a song for the|Mas- ter, *|Sin- ner, O list- en to-|day;|
 [Bd][Ac][GB] [GB][FA][=FB] | [Ec] [CE]2- [CE]3 | [B,D][CE][B,D] [B,D][DB][CA] | [B,G]6 || %8
w: On- ly a song for the|Mas- ter, *|Cheer- ing some one in des-|pair.|
w: On- ly a song for the|Mas- ter, *|Tell- ing a sto- ry so|true.|
w: On- ly a song for the|Mas- ter, *|Thro’ Him there’s no- thing to|pay.|
"^Refrain" [Bd]4 [Ac][GB] | [Ac]6 | [Ac]4 [GB][FA] | [GB]6 | [B,D]4 [DG][GB] | [Bd]3 [GB]3 | %14
w: ||||||
w: On- ly a|song,|on- ly a|song,|Prais- ing my|Sav- ior|
w: ||||||
 [Ac]4 [GB][FA] | [GB]6 | [Bd]4 [Ac][GB] | [Ac]6 | [Ac]4 [GB][FA] | [GB]6 | [B,D]4 [DG][GB] | %21
w: |||||||
w: all the day|long,|On- ly a|song,|on- ly a|song,|Prais- ing my|
w: |||||||
 [Bd]3 [GB]3 | [Ac]4 [GB][FA] | G6 |] %24
w: |||
w: Sav- ior|all the day|long.|
w: |||
V:2
 x6 | x6 | x6 | x6 | x6 | x6 | x6 | x6 || x6 | x6 | x6 | x6 | x6 | x6 | x6 | x6 | x6 | x6 | x6 | %19
 x6 | x6 | x6 | x6 | G6 |] %24
V:3
 [G,,G,][G,,G,][G,,G,] [G,,G,][G,,G,][G,,G,] | [C,G,] [C,G,]2- [C,G,]3 | %2
w: ~ ~ ~ ~ ~ ~|~ ~ *|
 [D,G,][D,G,][D,G,] [D,G,][D,G,][D,F,] | [G,,G,]6 | [G,,G,][G,,G,][G,,G,] [G,,G,][G,,G,][G,,G,] | %5
w: ~ ~ ~ ~ ~ ~|~|~ ~ ~ ~ ~ ~|
 [C,G,] [C,G,]2- [C,G,]3 | [D,G,][D,G,][D,G,] [D,G,][D,G,][D,F,] | [G,,G,]6 || z6 | %9
w: ~ ~ *|~ ~ ~ ~ ~ ~|~||
 [D,A,][D,A,][D,A,] [D,A,]3 | z6 | [G,,G,][G,,G,][G,,G,] [G,,G,]3 | %12
w: On- ly a song,||on- ly a song,|
 [G,,G,][G,,G,][G,,G,] [G,,G,]2 [G,,G,] | [G,,G,][G,,G,][G,,G,] [G,,G,]2 [G,,G,] | %14
w: Prais- ing my Sav- ior,|prais- ing my Sav- ior,|
 [D,F,][D,F,][D,F,] [D,F,]2 [D,A,] | [G,,G,][G,,G,][G,,G,] [G,,G,]3 | z6 | %17
w: prais- ing my Sav- ior|all the day long,||
 [D,A,][D,A,][D,A,] [D,A,]3 | z6 | [G,,G,][G,,G,][G,,G,] [G,,G,]3 | %20
w: On- ly a song,||on- ly a song|
 [G,,G,][G,,G,][G,,G,] [G,,G,]2 [G,,G,] | [G,,G,][G,,G,][G,,G,] [G,,D]2 [G,,D] | %22
w: Prais- ing my Sav- ior,|prais- ing my Sav- ior,|
 [D,D]4 [D,D][D,C] | [G,,B,]6 |] %24
w: ||

